X: 25315
T: Mandragore Vals
R: waltz
M: 3/4
K: Gmajor
DG GF GA|Gd cB GE|DG GF GA|1 ~A3B GE:|2 ~A3B GF||
GB dg fg|a3g fd|ce dc BG|AD B/c/d ef|
g3g fg|a2 gf dB|ce dc BG|~A3B GE||

